app/assets/images/container/container-tr-np.svg

<svg xmlns="http://www.w3.org/2000/svg" width="36" height="53" fill="none"><path fill="#E6D4BE" d="M0 19V2.5h1.5l3 4.5L16 16l2.5 6.5 8 2.5L34 38.5 33 53H16l-.5-23-11-11z"/><path stroke="#592F31" stroke-width="3" d="M34.5 53V38l-8-14-8-2-1.5-7L4.5 5.5l-3-4H0"/><path stroke="#B28F78" stroke-width="4" d="M17 53V29L5 17H0"/></svg>

<svg width="36" height="53" viewBox="0 0 36 53" fill="none" xmlns="http://www.w3.org/2000/svg">
<path d="M0 19V2.5H1.5L4.5 7L16 16L18.5 22.5L26.5 25L34 38.5L33 53H16L15.5 30L4.5 19H0Z" fill="#E6D4BE"/>
<path d="M34.5 53V38L26.5 24L18.5 22L17 15L4.5 5.5L1.5 1.5H0" stroke="#592F31" stroke-width="3"/>
<path d="M17 53V29L5 17H0" stroke="#B28F78" stroke-width="4"/>
</svg>
